X:1
T: Lennox Love to Blantyre
C:
R:Strathspey
Q: 128
K:D
M:4/4
L:1/16
|:A,2|D4 D3E F3E D3F|EE3 F3A B3A B3c|d3e d3B A3F D3F|G3E F3D B,B,B,2 B,2A,2|
D4 D3E F3E D3F|EE3 F3A B3A B3c|d3e d3B A3F D3F|G3E F3D B,B,B,2 B,2d2|
A3B d3e f3e d3f|e3d e3f e3d B3d|A3B d3e f3e d3f|e3d g3f e4 d3B|
A3B d3e f3e d3f|e3d e3f e3d B3d|A3B d3e f3e d3f|e3d g3f e4 d2:|
